X:5039
T:The Cliff Path
C:Aidan Crossey
R:Waltz
M:3/4
L:1/4
K:G
GA|B3/2A/2G|B3/2A/2G|B3/2d/2e|dGA|
B3/2A/G|B3/2A/G|A3|ABc|
B3/2A/2G|B3/2A/2G|B3/2d/2e|g3/2f/2e|
d3/2c/2B|A3/2G/2F|E3||
Bc|d3/2B/2G|d3/2B/2G|c3/2A/2F|B/2c/2AF|
G3/2A/2B|A3/2B/2c|B/2c/2dc|ABc|
d3/2^c/2d|e3/2f/2g|f/2g/2fe|d3/2c/2/B|
c/2B/2AF|D3/2F/2A|G3||
Bc|d3/2^c/2d|d3/2^c/2d|c3/2B/2c|c3/2B/2c|
B3/2A/2G|B3/2c/2d|e3|ABc|
d3/2^c/2d|e3/2f/2g|f/2g/2fa|g2d|
e3/2c/2A|F3/2E/2D|G3||
